X:14471
T:ROND DE SAINT-VINCENT N 2
Z: Yves BELOTTEAU
M:4/4
L:1/4
Q:1/4=80
K:C 
|cB/2c/2AB/2c/2 dc/2B/2AG|cB/2c/2AB/2c/2 dc/2B/2A2|cB/2c/2AB/2c/2 dc/2B/
2AG|cB/2c/2AB/2c/2 dc/2B/2A2|
dc/2B/2AG dc/2B/2AG|cA2B/2c/2 dc/2B/2AG|cA2B/2c/2 dc/2B/2A2|cA2B/2c/2 dc
/2B/2AG|
cA2B/2c/2 dc/2B/2A2|
